resources/images/check.svg

<svg width="80" height="80" viewBox="0 0 80 80" fill="none" xmlns="http://www.w3.org/2000/svg">
<g clip-path="url(#clip0_1745_609)">
<path d="M79.8438 40C79.8438 47.8955 77.5 55.5737 73.0664 62.2052C72.464 63.1067 71.474 63.5938 70.4657 63.5938C69.8688 63.5938 69.2652 63.4235 68.7317 63.0664C67.2968 62.1076 66.9116 60.1666 67.8705 58.7317C71.615 53.1317 73.5938 46.6547 73.5938 40C73.5938 37.1405 73.2361 34.3005 72.5305 31.5601C72.1003 29.8889 73.1067 28.1848 74.7779 27.7545C76.4502 27.3248 78.1531 28.3307 78.5834 30.0018C79.4196 33.2514 79.8438 36.615 79.8438 40ZM57.3023 68.8898C52.0532 72.0691 46.0163 73.75 39.8438 73.75C21.2341 73.75 6.09375 58.6096 6.09375 40C6.09375 21.3904 21.2341 6.25 39.8438 6.25C46.734 6.25 53.3594 8.31177 59.0045 12.2125C60.4242 13.1934 62.3706 12.8375 63.3521 11.4178C64.3329 9.99817 63.9777 8.05176 62.5574 7.07031C55.8631 2.44507 48.0091 0 39.8438 0C29.1596 0 19.1144 4.16077 11.5595 11.7157C4.00452 19.2706 -0.15625 29.3158 -0.15625 40C-0.15625 50.6842 4.00452 60.7294 11.5595 68.2843C19.1144 75.8393 29.1596 80 39.8438 80C47.1582 80 54.3152 78.0066 60.5408 74.2353C62.0172 73.3411 62.489 71.4197 61.5949 69.9433C60.7001 68.4668 58.7787 67.9956 57.3023 68.8898ZM40.1453 49.0613C39.6503 49.0808 39.1882 48.905 38.8294 48.5632L22.4628 33.0451C21.2103 31.8573 19.2322 31.9098 18.0451 33.1622C16.8573 34.4147 16.9098 36.3928 18.1622 37.58L34.5258 53.0957C36.037 54.5325 37.992 55.3125 40.0635 55.3125C40.1746 55.3125 40.2857 55.3101 40.3967 55.3058C42.591 55.2173 44.6063 54.2676 46.0712 52.6312C46.1084 52.5903 46.1438 52.5482 46.1786 52.5049L79.1541 11.4893C80.2356 10.144 80.022 8.17688 78.6768 7.09595C77.3322 6.01441 75.3644 6.22803 74.2829 7.57324L41.3721 48.5089C41.0486 48.8465 40.6152 49.0424 40.1453 49.0613Z" fill="#95C11F"/>
</g>
<defs>
<clipPath id="clip0_1745_609">
<rect width="80" height="80" fill="white"/>
</clipPath>
</defs>
</svg>

<svg width="80" height="80" fill="none" xmlns="http://www.w3.org/2000/svg"><g clip-path="url(#clip0_1745_609)"><path d="M79.844 40c0 7.895-2.344 15.574-6.778 22.205a3.121 3.121 0 0 1-4.334.861 3.125 3.125 0 0 1-.861-4.334c3.744-5.6 5.723-12.077 5.723-18.732 0-2.86-.358-5.7-1.063-8.44a3.126 3.126 0 0 1 6.052-1.558A40.145 40.145 0 0 1 79.843 40ZM57.302 68.89a33.69 33.69 0 0 1-17.458 4.86c-18.61 0-33.75-15.14-33.75-33.75s15.14-33.75 33.75-33.75c6.89 0 13.515 2.062 19.16 5.963a3.126 3.126 0 0 0 3.553-5.143C55.863 2.445 48.01 0 39.844 0 29.16 0 19.114 4.16 11.559 11.716 4.005 19.27-.155 29.316-.155 40c0 10.684 4.16 20.73 11.716 28.284C19.114 75.84 29.16 80 39.843 80a39.936 39.936 0 0 0 20.697-5.765 3.125 3.125 0 1 0-3.239-5.345ZM40.145 49.06a1.781 1.781 0 0 1-1.316-.498L22.463 33.045a3.125 3.125 0 1 0-4.3 4.535l16.363 15.516a7.98 7.98 0 0 0 5.87 2.21 7.987 7.987 0 0 0 5.783-2.801l32.975-41.016a3.124 3.124 0 1 0-4.871-3.916L41.373 48.51a1.786 1.786 0 0 1-1.228.552Z" fill="#95C11F"/></g></svg>
